_site/images/homepage/email-image.svg

<svg fill="none" height="223" viewBox="0 0 285 223" width="285" xmlns="http://www.w3.org/2000/svg" xmlns:xlink="http://www.w3.org/1999/xlink"><filter id="a" color-interpolation-filters="sRGB" filterUnits="userSpaceOnUse" height="223" width="277" x="8" y="0"><feFlood flood-opacity="0" result="BackgroundImageFix"/><feColorMatrix in="SourceAlpha" type="matrix" values="0 0 0 0 0 0 0 0 0 0 0 0 0 0 0 0 0 0 127 0"/><feOffset dy="15"/><feGaussianBlur stdDeviation="22.5"/><feColorMatrix type="matrix" values="0 0 0 0 0.719566 0 0 0 0 0.748166 0 0 0 0 0.795833 0 0 0 0.25 0"/><feBlend in2="BackgroundImageFix" mode="normal" result="effect1_dropShadow"/><feBlend in="SourceGraphic" in2="effect1_dropShadow" mode="normal" result="shape"/></filter><filter id="b" color-interpolation-filters="sRGB" filterUnits="userSpaceOnUse" height="137" width="137" x="0" y="35"><feFlood flood-opacity="0" result="BackgroundImageFix"/><feColorMatrix in="SourceAlpha" type="matrix" values="0 0 0 0 0 0 0 0 0 0 0 0 0 0 0 0 0 0 127 0"/><feOffset dx="9" dy="20"/><feGaussianBlur stdDeviation="20"/><feColorMatrix type="matrix" values="0 0 0 0 0 0 0 0 0 0.351917 0 0 0 0 0.429167 0 0 0 0.25 0"/><feBlend in2="BackgroundImageFix" mode="normal" result="effect1_dropShadow"/><feBlend in="SourceGraphic" in2="effect1_dropShadow" mode="normal" result="shape"/></filter><g filter="url(#a)"><rect fill="#fff" height="133" rx="30" width="187" x="53" y="30"/></g><g filter="url(#b)"><rect fill="#00a0b6" height="57" rx="17" width="57" x="31" y="55"/></g><rect fill="#9cd7eb" height="20" rx="10" transform="matrix(-1 0 0 -1 374 80)" width="43" x="187" y="40"/><rect fill="#9cd7eb" height="20" rx="10" transform="matrix(-1 0 0 -1 224 350)" width="31" x="112" y="175"/><g clip-rule="evenodd" fill-rule="evenodd"><path d="m45.3078 77.2844c2.4716-5.6311 8.0381-9.2727 14.1922-9.2844 6.1541.0117 11.7206 3.6533 14.1922 9.2844 2.4716 5.6312 1.3819 12.1894-2.7782 16.7205-2.94 3.184-7.0783 4.9951-11.414 4.9951s-8.474-1.8111-11.414-4.9951c-4.1601-4.5311-5.2498-11.0893-2.7782-16.7205zm5.5767 15.1541c2.3122 2.2348 5.4018 3.4862 8.6187 3.4911 3.217-.0049 6.3066-1.2563 8.6187-3.4911-1.4357-3.4922-4.8401-5.7723-8.6187-5.7723-3.7785 0-7.1829 2.2801-8.6187 5.7723zm5.5098-12.0253c0-1.7139 1.3905-3.1032 3.1058-3.1032s3.1059 1.3893 3.1059 3.1032c0 1.7138-1.3906 3.1032-3.1059 3.1032s-3.1058-1.3894-3.1058-3.1032zm7.765 4.0638c2.549 1.0287 4.6844 2.8732 6.0719 5.2444 1.1058-1.882 1.69-4.0242 1.6927-6.2064 0-6.8555-5.5621-12.4129-12.4233-12.4129-6.8613 0-12.4234 5.5574-12.4234 12.4129.0027 2.1822.5869 4.3244 1.6927 6.2064 1.3875-2.3712 3.5229-4.2157 6.0719-5.2444-2.2024-2.4952-2.044-6.2817.3591-8.5845 2.4032-2.3028 6.1962-2.3028 8.5993 0s2.5615 6.0893.3591 8.5845z" fill="#fff"/><path d="m136.805 68h57.526c4.855 0 8.805 4.0804 8.805 9.0957v38.8083c0 5.016-3.95 9.096-8.805 9.096h-57.526c-4.855 0-8.805-4.08-8.805-9.096v-38.8083c0-5.0153 3.95-9.0957 8.805-9.0957zm57.526 50.936c1.619 0 2.935-1.36 2.935-3.032v-36.9499l-31.699 24.3559-31.697-24.3548v36.9488c0 1.672 1.317 3.032 2.935 3.032zm-56.991-44.8722 28.227 21.6892 28.228-21.6892z" fill="#d9f1f4"/></g></svg>

<svg width="285" height="223" viewBox="0 0 285 223" fill="none" xmlns="http://www.w3.org/2000/svg">
<g filter="url(#filter0_d)">
<rect x="53" y="30" width="187" height="133" rx="30" fill="white"/>
</g>
<g filter="url(#filter1_d)">
<rect x="31" y="55" width="57" height="57" rx="17" fill="#00A0B6"/>
</g>
<rect x="187" y="40" width="43" height="20" rx="10" transform="rotate(-180 187 40)" fill="#9CD7EB"/>
<rect x="112" y="175" width="31" height="20" rx="10" transform="rotate(-180 112 175)" fill="#9CD7EB"/>
<path fill-rule="evenodd" clip-rule="evenodd" d="M45.3078 77.2844C47.7794 71.6533 53.3459 68.0117 59.5 68C65.6541 68.0117 71.2206 71.6533 73.6922 77.2844C76.1638 82.9156 75.0741 89.4738 70.914 94.0049C67.974 97.1889 63.8357 99 59.5 99C55.1643 99 51.026 97.1889 48.086 94.0049C43.9259 89.4738 42.8362 82.9156 45.3078 77.2844ZM50.8845 92.4385C53.1967 94.6733 56.2863 95.9247 59.5032 95.9296C62.7202 95.9247 65.8098 94.6733 68.1219 92.4385C66.6862 88.9463 63.2818 86.6662 59.5032 86.6662C55.7247 86.6662 52.3203 88.9463 50.8845 92.4385ZM56.3943 80.4132C56.3943 78.6993 57.7848 77.31 59.5001 77.31C61.2154 77.31 62.606 78.6993 62.606 80.4132C62.606 82.127 61.2154 83.5164 59.5001 83.5164C57.7848 83.5164 56.3943 82.127 56.3943 80.4132ZM64.1593 84.477C66.7083 85.5057 68.8437 87.3502 70.2312 89.7214C71.337 87.8394 71.9212 85.6972 71.9239 83.515C71.9239 76.6595 66.3618 71.1021 59.5006 71.1021C52.6393 71.1021 47.0772 76.6595 47.0772 83.515C47.0799 85.6972 47.6641 87.8394 48.7699 89.7214C50.1574 87.3502 52.2928 85.5057 54.8418 84.477C52.6394 81.9818 52.7978 78.1953 55.2009 75.8925C57.6041 73.5897 61.3971 73.5897 63.8002 75.8925C66.2033 78.1953 66.3617 81.9818 64.1593 84.477Z" fill="white"/>
<path fill-rule="evenodd" clip-rule="evenodd" d="M136.805 68H194.331C199.186 68 203.136 72.0804 203.136 77.0957V115.904C203.136 120.92 199.186 125 194.331 125H136.805C131.95 125 128 120.92 128 115.904V77.0957C128 72.0804 131.95 68 136.805 68ZM194.331 118.936C195.95 118.936 197.266 117.576 197.266 115.904V78.9541L165.567 103.31L133.87 78.9552V115.904C133.87 117.576 135.187 118.936 136.805 118.936H194.331ZM137.34 74.0638L165.567 95.753L193.795 74.0638H137.34Z" fill="#D9F1F4"/>
<defs>
<filter id="filter0_d" x="8" y="0" width="277" height="223" filterUnits="userSpaceOnUse" color-interpolation-filters="sRGB">
<feFlood flood-opacity="0" result="BackgroundImageFix"/>
<feColorMatrix in="SourceAlpha" type="matrix" values="0 0 0 0 0 0 0 0 0 0 0 0 0 0 0 0 0 0 127 0"/>
<feOffset dy="15"/>
<feGaussianBlur stdDeviation="22.5"/>
<feColorMatrix type="matrix" values="0 0 0 0 0.719566 0 0 0 0 0.748166 0 0 0 0 0.795833 0 0 0 0.25 0"/>
<feBlend mode="normal" in2="BackgroundImageFix" result="effect1_dropShadow"/>
<feBlend mode="normal" in="SourceGraphic" in2="effect1_dropShadow" result="shape"/>
</filter>
<filter id="filter1_d" x="0" y="35" width="137" height="137" filterUnits="userSpaceOnUse" color-interpolation-filters="sRGB">
<feFlood flood-opacity="0" result="BackgroundImageFix"/>
<feColorMatrix in="SourceAlpha" type="matrix" values="0 0 0 0 0 0 0 0 0 0 0 0 0 0 0 0 0 0 127 0"/>
<feOffset dx="9" dy="20"/>
<feGaussianBlur stdDeviation="20"/>
<feColorMatrix type="matrix" values="0 0 0 0 0 0 0 0 0 0.351917 0 0 0 0 0.429167 0 0 0 0.25 0"/>
<feBlend mode="normal" in2="BackgroundImageFix" result="effect1_dropShadow"/>
<feBlend mode="normal" in="SourceGraphic" in2="effect1_dropShadow" result="shape"/>
</filter>
</defs>
</svg>
